icons/svg/pause-circle-active_24.svg

<svg width="24" height="24" xmlns="http://www.w3.org/2000/svg" xmlns:xlink="http://www.w3.org/1999/xlink"><defs><path d="M0 12c0 6.618 5.382 12 12 12 6.617 0 12-5.382 12-12 0-6.617-5.383-12-12-12C5.382 0 0 5.383 0 12zm12.998 3.5v-7c0-.826.675-1.5 1.5-1.5s1.5.674 1.5 1.5v7c0 .825-.675 1.5-1.5 1.5s-1.5-.675-1.5-1.5zm-5 0v-7c0-.826.675-1.5 1.5-1.5s1.5.674 1.5 1.5v7c0 .825-.675 1.5-1.5 1.5s-1.5-.675-1.5-1.5zm6-7v7c0 .271.229.5.5.5s.5-.229.5-.5v-7c0-.271-.229-.5-.5-.5s-.5.229-.5.5zm-5 0v7c0 .271.229.5.5.5s.5-.229.5-.5v-7c0-.271-.229-.5-.5-.5s-.5.229-.5.5z" id="a"/></defs><use fill="#171B1F" xlink:href="#a" fill-rule="evenodd"/></svg>

<?xml version="1.0" encoding="UTF-8"?>
<svg width="24px" height="24px" viewBox="0 0 24 24" version="1.1" xmlns="http://www.w3.org/2000/svg" xmlns:xlink="http://www.w3.org/1999/xlink">
    <!-- Generator: Sketch 59.1 (86144) - https://sketch.com -->
    <title>pause-circle-active_24</title>
    <desc>Created with Sketch.</desc>
    <defs>
        <path d="M0,12 C0,18.618 5.382,24 12,24 L12,24 C18.617,24 24,18.618 24,12 L24,12 C24,5.383 18.617,0 12,0 L12,0 C5.382,0 0,5.383 0,12 L0,12 Z M12.998,15.5 L12.998,8.5 C12.998,7.674 13.673,7 14.498,7 L14.498,7 C15.323,7 15.998,7.674 15.998,8.5 L15.998,8.5 L15.998,15.5 C15.998,16.325 15.323,17 14.498,17 L14.498,17 C13.673,17 12.998,16.325 12.998,15.5 L12.998,15.5 Z M7.998,15.5 L7.998,8.5 C7.998,7.674 8.673,7 9.498,7 L9.498,7 C10.323,7 10.998,7.674 10.998,8.5 L10.998,8.5 L10.998,15.5 C10.998,16.325 10.323,17 9.498,17 L9.498,17 C8.673,17 7.998,16.325 7.998,15.5 L7.998,15.5 Z M13.998,8.5 L13.998,15.5 C13.998,15.771 14.227,16 14.498,16 L14.498,16 C14.769,16 14.998,15.771 14.998,15.5 L14.998,15.5 L14.998,8.5 C14.998,8.229 14.769,8 14.498,8 L14.498,8 C14.227,8 13.998,8.229 13.998,8.5 L13.998,8.5 Z M8.998,8.5 L8.998,15.5 C8.998,15.771 9.227,16 9.498,16 L9.498,16 C9.769,16 9.998,15.771 9.998,15.5 L9.998,15.5 L9.998,8.5 C9.998,8.229 9.769,8 9.498,8 L9.498,8 C9.227,8 8.998,8.229 8.998,8.5 L8.998,8.5 Z" id="path-1"></path>
    </defs>
    <g id="Icons-Webex" stroke="none" stroke-width="1" fill="none" fill-rule="evenodd">
        <g id="video-controls/pause-circle-active_24">
            <mask id="mask-2" fill="white">
                <use xlink:href="#path-1"></use>
            </mask>
            <use id="fill" fill="#171B1F" fill-rule="evenodd" xlink:href="#path-1"></use>
        </g>
    </g>
</svg>
